X: 15941
T: Granny In The Attic
R: hornpipe
M: 4/4
K: Dmajor
E3B ABFA|EdBA ~F3E|Dd~d2 ABdf-|fedA BAGF|
E3B ABFA|EdBA ~F3E|Dd~d2 ABdg|1 fdBA ~A2GF:|2 fA~A2 gfAB||
dAAB ~G2 Ec|dA~A2 gfdc|dAAB ~G2 Ec|dAgf- fdgf|
dAAB ~G2 Ec|dA~A2 FAdg|fB~B2 FABd|1 cA~A2 d3e:|2 cA~A2 d4||

